assets/shapes/hexaback.svg

<svg width="131" height="145" viewBox="0 0 131 145" fill="none" xmlns="http://www.w3.org/2000/svg">
<path d="M55.5 2.7735C61.688 -0.799154 69.312 -0.799154 75.5 2.7735L120.885 28.9765C127.073 32.5492 130.885 39.1517 130.885 46.297V98.703C130.885 105.848 127.073 112.451 120.885 116.023L75.5 142.227C69.312 145.799 61.688 145.799 55.5 142.227L10.1151 116.023C3.92706 112.451 0.115082 105.848 0.115082 98.703V46.297C0.115082 39.1517 3.92706 32.5492 10.1151 28.9765L55.5 2.7735Z" fill="#03CCAB"/>
</svg>

<svg width="131" height="145" fill="none" xmlns="http://www.w3.org/2000/svg"><path d="M55.5 2.773a20 20 0 0 1 20 0l45.385 26.204a20 20 0 0 1 10 17.32v52.406a19.999 19.999 0 0 1-10 17.32L75.5 142.227a20.003 20.003 0 0 1-20 0l-45.385-26.204a19.999 19.999 0 0 1-10-17.32V46.297a20 20 0 0 1 10-17.32L55.5 2.773Z" fill="#03CCAB"/></svg>
